X: 10604
T: MORFA RHUDDLAN.
O: Welch air.
%R: air, waltz
B: W. Hamilton "Universal Tune-Book" Vol. 1 Glasgow 1844 p.60 #4 (and p.61 #1)
S: http://imslp.org/wiki/Hamilton's_Universal_Tune-Book_(Various)
Z: 2016 John Chambers <jc:trillian.mit.edu>
M: 3/4
L: 1/8
K: Gm
%%slurgraces yes
%%graceslurs yes
% - - - - - - - - - - - - - - - - - - - - - - - - -
|:!p!\
G2 G2 (Bd) | c2 c2 B2 | A2 (AB) (AG) | d2 D2 ^F2 |\
G2 (GA) (Bd) | !f!c2 (ed) (cB) | {B}A2 G2 ^F2 | ^F2 G4 ::\
d2 (de) (fd) | c2 (cd) (ec) | B2 B2 A2 | A2 B2 z2 |
d2 (de) (fe/d/) | c2 (cd) (ed/c/) | (Be) (dc) (BA) | {A}B4 c2 |\
d2 (Bc) (dB) | (cB) (AB) (cA) | (BA) (GB) AG | ^F2 D2 z2 |\
G2 (GA) (Bc) | (cd) (ed) (cB) | {B}A2 G2 (A^F) | G6 :|
% - - - - - - - - - - - - - - - - - - - - - - - - -

% (Continued from previous page)

%%sep 1 1 500
%%sep 1 1 500

